symbols/web/self_improvement/materialsymbolsoutlined/self_improvement_wght600grad200_24px.svg

<svg xmlns="http://www.w3.org/2000/svg" height="24" width="24"><path d="M12 7.35q-1 0-1.688-.675Q9.625 6 9.625 5t.687-1.688Q11 2.625 12 2.625t1.688.687Q14.375 4 14.375 5t-.687 1.675Q13 7.35 12 7.35Zm-5.275 13.2q-.95 0-1.587-.65-.638-.65-.638-1.6 0-.675.363-1.275.362-.6.987-.85l3.725-1.45V13.5q-1.225 1.225-3.137 1.95-1.913.725-4.038.725V13.3q1.875 0 3.313-.638 1.437-.637 2.512-1.937l1.35-1.65q.375-.45.863-.663.487-.212 1.062-.212h1q.575 0 1.062.225.488.225.863.675l1.35 1.65q1.075 1.3 2.513 1.925 1.437.625 3.312.625v2.875q-2.125 0-4.038-.725-1.912-.725-3.137-1.95v1.225l3.725 1.45q.625.25.988.85.362.6.362 1.275 0 .95-.637 1.6-.638.65-1.588.65h-7.3v-.85q0-.725.488-1.175.487-.45 1.137-.45h2.925q.225 0 .362-.137.138-.138.138-.363 0-.25-.138-.375-.137-.125-.362-.125H11.6q-1.1 0-1.862.75-.763.75-.763 1.875v.85Z"/></svg>

<svg xmlns="http://www.w3.org/2000/svg" height="24" width="24"><path d="M12 7.35Q11 7.35 10.312 6.675Q9.625 6 9.625 5Q9.625 4 10.312 3.312Q11 2.625 12 2.625Q13 2.625 13.688 3.312Q14.375 4 14.375 5Q14.375 6 13.688 6.675Q13 7.35 12 7.35ZM6.725 20.55Q5.775 20.55 5.138 19.9Q4.5 19.25 4.5 18.3Q4.5 17.625 4.863 17.025Q5.225 16.425 5.85 16.175L9.575 14.725V13.5Q8.35 14.725 6.438 15.45Q4.525 16.175 2.4 16.175V13.3Q4.275 13.3 5.713 12.662Q7.15 12.025 8.225 10.725L9.575 9.075Q9.95 8.625 10.438 8.412Q10.925 8.2 11.5 8.2H12.5Q13.075 8.2 13.562 8.425Q14.05 8.65 14.425 9.1L15.775 10.75Q16.85 12.05 18.288 12.675Q19.725 13.3 21.6 13.3V16.175Q19.475 16.175 17.562 15.45Q15.65 14.725 14.425 13.5V14.725L18.15 16.175Q18.775 16.425 19.138 17.025Q19.5 17.625 19.5 18.3Q19.5 19.25 18.863 19.9Q18.225 20.55 17.275 20.55H9.975V19.7Q9.975 18.975 10.463 18.525Q10.95 18.075 11.6 18.075H14.525Q14.75 18.075 14.887 17.938Q15.025 17.8 15.025 17.575Q15.025 17.325 14.887 17.2Q14.75 17.075 14.525 17.075H11.6Q10.5 17.075 9.738 17.825Q8.975 18.575 8.975 19.7V20.55Z"/></svg>
